X: 448
T: Dancia Pelegrina
B: good tune book
B: tunes
M:6/8
R: jig
Q: 3/8=100
K:Dmajor
V:1 
FG|:A2F [Bd]2F|A2d dcd|e2d e2f|dcB AFG|
 A2F [Bd]2F|A2d dcd|e2d f2e|1 ~d3 dFG:|2 d3 dcA||
 |:~B2d e2A|d2f fed|e2d e2f|dcB AFG|
 A2F B2F|A2d dcd|e2d f2e|1 d3 dcA:|2 d3 d||
% abcbook-tune_id 63ce6af39b0faac8b30486ff
% abcbook-tune_composer_id 
% abcbook-link-0 https://www.youtube.com/watch?v=EwsVnieBCqk
% abcbook-link-title-0 Dancia Pelegrina (Jig)
% abcbook-boost 0
% abcbook-difficulty 0
% abcbook-tags good tune book
% abcbook-tablature 
% abcbook-transpose 
% abcbook-tuning 
% abcbook-lastupdated 1675426287212
% abcbook-soundfonts 
% abcbook-repeats 1


